X:1
T:The Running Fitter
O:Northumberland, England
M:9/8
L:1/8
S:"Noel" <noelbats:onetel.com> tradtunes 2012-3-21
N:adapted from the setting in W Shield's 'Rudiments of Thorough Bass' (discovered by Les Jessop)
N:(comment by John Adams of the Village Music Project)
B:Walsh’s collection of Lancashire tunes (Lancashire Jigs, Hornpipes, Joaks, etc.) published around 1730.
K: G
   D | "G"G>AG gfe  dBG | "Am"A>Bc EFG "D7"AFD | "G"G>AG gfe  dBG | "C"efg "D7"agf "G"g2 :|
|: d | "G"ded ^cd=c Bgd | "Am"edc  BAG "D7"FAD | "G"ded ^cd=c Bgd | "C"ecB "D7"AGF "G"G2 :|
|: d | "G"B3   g2e  dBG | "Am"c3   EFG "D7"AFD | "G"B3   g2e  dBG | "C"efg "D7"agf "G"g2 :|

